; generated by Slic3r 1.2.9 on 2016-02-16 at 18:17:56

; external perimeters extrusion width = 0.50mm
; perimeters extrusion width = 0.72mm
; infill extrusion width = 0.72mm
; solid infill extrusion width = 0.72mm
; top infill extrusion width = 0.72mm

M107
M190 S80 ; set bed temperature
M104 S235 ; set temperature
G28 ; home all axes
G1 Z5 F5000 ; lift nozzle

M109 S235 ; wait for temperature to be reached
G21 ; set units to millimeters
G90 ; use absolute coordinates
M82 ; use absolute distances for extrusion
G92 E0
G1 Z0.350 F7800.000
G1 E-2.00000 F2400.00000
G92 E0
G1 X84.018 Y84.018 F7800.000
G1 E2.00000 F2400.00000
G1 X86.482 Y81.553 E2.31692 F1800.000
G1 X113.471 Y81.553 E4.77099
G1 X118.412 Y86.495 E5.40646
G1 X118.412 Y113.483 E7.86052 F1800.000
G1 X113.471 Y118.425 E8.49599
G1 X86.482 Y118.425 E10.95006
G1 X81.540 Y113.483 E11.58553
G1 X81.540 Y86.495 E14.03959
G1 X83.965 Y84.071 E14.35132
G1 X84.459 Y84.459 F7800.000
G1 X86.741 Y82.178 E14.64471 F1800.000
G1 X113.212 Y82.178 E17.05170
G1 X117.788 Y86.754 E17.64010 F1800.000
G1 X117.788 Y113.225 E20.04709
G1 X113.212 Y117.800 E20.63549
G1 X86.741 Y117.800 E23.04248
G1 X82.165 Y113.225 E23.63088
G1 X82.165 Y86.754 E26.03787
G1 X84.406 Y84.513 E26.32606
G1 X84.901 Y84.901 F7800.000
G1 X87.000 Y82.803 E26.59591 F1800.000
G1 X112.953 Y82.803 E28.95583
G1 X117.163 Y87.012 E29.49716
G1 X117.163 Y112.966 E31.85708 F1800.000
G1 X112.953 Y117.175 E32.39841
G1 X87.000 Y117.175 E34.75833
G1 X82.790 Y112.966 E35.29965
G1 X82.790 Y87.012 E37.65957
G1 X84.848 Y84.954 E37.92423
G1 X85.343 Y85.343 F7800.000
G1 X87.259 Y83.428 E38.17055 F1800.000
G1 X112.694 Y83.428 E40.48339
G1 X116.538 Y87.271 E40.97765 F1800.000
G1 X116.538 Y112.707 E43.29050
G1 X112.694 Y116.550 E43.78475
G1 X87.259 Y116.550 E46.09760
G1 X83.415 Y112.707 E46.59185
G1 X83.415 Y87.271 E48.90470
G1 X85.290 Y85.396 E49.14582
G1 X85.785 Y85.785 F7800.000
G1 X87.518 Y84.053 E49.36860 F1800.000
G1 X112.435 Y84.053 E51.63438
G1 X115.913 Y87.530 E52.08156
G1 X115.913 Y112.448 E54.34734 F1800.000
G1 X112.435 Y115.926 E54.79452
G1 X87.518 Y115.926 E57.06030
G1 X84.040 Y112.448 E57.50748
G1 X84.040 Y87.530 E59.77325
G1 X85.732 Y85.838 E59.99084
G1 X86.227 Y86.227 F7800.000
G1 X87.776 Y84.678 E60.19008 F1800.000
G1 X112.177 Y84.678 E62.40879
G1 X115.288 Y87.789 E62.80890 F1800.000
G1 X115.288 Y112.189 E65.02760
G1 X112.177 Y115.301 E65.42771
G1 X87.776 Y115.301 E67.64642
G1 X84.665 Y112.189 E68.04653
G1 X84.665 Y87.789 E70.26523
G1 X86.174 Y86.280 E70.45928
G1 X86.669 Y86.669 F7800.000
G1 X88.035 Y85.302 E70.63499 F1800.000
G1 X111.918 Y85.302 E72.80662
G1 X114.663 Y88.048 E73.15966
G1 X114.663 Y111.930 E75.33129 F1800.000
G1 X111.918 Y114.676 E75.68433
G1 X88.035 Y114.676 E77.85596
G1 X85.290 Y111.930 E78.20900
G1 X85.290 Y88.048 E80.38063
G1 X86.616 Y86.722 E80.55114
G1 X87.111 Y87.111 F7800.000
G1 X88.294 Y85.927 E80.70332 F1800.000
G1 X111.659 Y85.927 E82.82788
G1 X114.038 Y88.307 E83.13384 F1800.000
G1 X114.038 Y111.672 E85.25840
G1 X111.659 Y114.051 E85.56437
G1 X88.294 Y114.051 E87.68893
G1 X85.915 Y111.672 E87.99490
G1 X85.915 Y88.307 E90.11946
G1 X87.058 Y87.164 E90.26643
G1 X87.553 Y87.553 F7800.000
G1 X88.553 Y86.552 E90.39507 F1800.000
G1 X111.400 Y86.552 E92.47256
G1 X113.413 Y88.565 E92.73145
G1 X113.413 Y111.413 E94.80894 F1800.000
G1 X111.400 Y113.426 E95.06784
G1 X88.553 Y113.426 E97.14532
G1 X86.540 Y111.413 E97.40422
G1 X86.540 Y88.565 E99.48171
G1 X87.500 Y87.606 E99.60515
G1 X87.994 Y87.994 F7800.000
G1 X88.812 Y87.177 E99.71025 F1800.000
G1 X111.141 Y87.177 E101.74066
G1 X112.788 Y88.824 E101.95249 F1800.000
G1 X112.788 Y111.154 E103.98290
G1 X111.141 Y112.801 E104.19472
G1 X88.812 Y112.801 E106.22514
G1 X87.164 Y111.154 E106.43696
G1 X87.164 Y88.824 E108.46738
G1 X87.941 Y88.047 E108.56728
G1 X88.436 Y88.436 F7800.000
G1 X89.071 Y87.802 E108.64885 F1800.000
G1 X110.882 Y87.802 E110.63219
G1 X112.164 Y89.083 E110.79694
G1 X112.164 Y110.895 E112.78029 F1800.000
G1 X110.882 Y112.176 E112.94504
G1 X89.071 Y112.176 E114.92838
G1 X87.789 Y110.895 E115.09313
G1 X87.789 Y89.083 E117.07648
G1 X88.383 Y88.489 E117.15285
G1 X88.878 Y88.878 F7800.000
G1 X89.329 Y88.427 E117.21087 F1800.000
G1 X110.624 Y88.427 E119.14715
G1 X111.539 Y89.342 E119.26483 F1800.000
G1 X111.539 Y110.636 E121.20110
G1 X110.624 Y111.551 E121.31878
G1 X89.329 Y111.551 E123.25505
G1 X88.414 Y110.636 E123.37273
G1 X88.414 Y89.342 E125.30900
G1 X88.825 Y88.931 E125.36183
G1 X89.320 Y89.320 F7800.000
G1 X89.588 Y89.052 E125.39632 F1800.000
G1 X110.365 Y89.052 E127.28552
G1 X110.914 Y89.601 E127.35613
G1 X110.914 Y110.377 E129.24533 F1800.000
G1 X110.365 Y110.926 E129.31594
G1 X89.588 Y110.926 E131.20514
G1 X89.039 Y110.377 E131.27575
G1 X89.039 Y89.601 E133.16495
G1 X89.267 Y89.373 E133.19424
G1 X89.664 Y89.860 F7800.000
G1 X89.847 Y89.677 E133.21778 F1800.000
G1 X110.106 Y89.677 E135.05991
G1 X110.289 Y89.860 E135.08344
G1 X110.289 Y110.119 E136.92557
G1 X110.106 Y110.302 E136.94911
G1 X89.847 Y110.302 E138.79123
G1 X89.664 Y110.119 E138.81477
G1 X89.664 Y89.935 E140.65008
G1 E138.65008 F2400.00000
G92 E0
G1 X109.626 Y109.639 F7800.000
G1 E2.00000 F2400.00000
G1 X90.326 Y109.639 E3.75494 F1800.000
G1 X90.326 Y90.339 E5.50988
G1 X109.626 Y90.339 E7.26482
G1 X109.626 Y109.564 E9.01294
G1 X109.193 Y109.389 F7800.000
G1 X109.002 Y109.014 F7800.000
G1 X90.951 Y109.014 E10.65424 F1800.000
G1 X90.951 Y90.964 E12.29554
G1 X109.002 Y90.964 E13.93684
G1 X109.002 Y108.939 E15.57132
G1 X108.377 Y108.389 F7800.000
G1 X91.576 Y108.389 E17.09898 F1800.000
G1 X91.576 Y91.589 E18.62664
G1 X108.377 Y91.589 E20.15429
G1 X108.377 Y108.314 E21.67513
G1 X107.998 Y92.273 F7800.000
G1 X107.693 Y91.967 E21.71506 F1800.000
G1 X106.794 Y91.967 E21.79828
G1 X107.998 Y93.172 E21.95590
G1 X107.998 Y94.071 E22.03911
G1 X105.894 Y91.967 E22.31442
G1 X104.995 Y91.967 E22.39764
G1 X107.998 Y94.971 E22.79064
G1 X107.998 Y95.870 E22.87385
G1 X104.096 Y91.967 E23.38454
G1 X103.196 Y91.967 E23.46776
G1 X107.998 Y96.769 E24.09613
G1 X107.998 Y97.669 E24.17935
G1 X102.297 Y91.967 E24.92541
G1 X101.398 Y91.967 E25.00863
G1 X107.998 Y98.568 E25.87238
G1 X107.998 Y99.467 E25.95560
G1 X100.498 Y91.967 E26.93704
G1 X99.599 Y91.967 E27.02026
G1 X107.998 Y100.366 E28.11938
G1 X107.998 Y101.266 E28.20260
G1 X98.700 Y91.967 E29.41942
G1 X97.800 Y91.967 E29.50264
G1 X107.998 Y102.165 E30.83714
G1 X107.998 Y103.064 E30.92036
G1 X96.901 Y91.967 E32.37256
G1 X96.002 Y91.967 E32.45577
G1 X107.998 Y103.964 E34.02566
G1 X107.998 Y104.863 E34.10888
G1 X95.102 Y91.967 E35.79645
G1 X94.203 Y91.967 E35.87967
G1 X107.998 Y105.762 E37.68493
G1 X107.998 Y106.662 E37.76815
G1 X93.304 Y91.967 E39.69110
G1 X92.404 Y91.967 E39.77431
G1 X107.998 Y107.561 E41.81495
G1 X107.548 Y108.011 E41.87380
G1 X91.955 Y92.417 E43.91443
G1 X91.955 Y93.316 E43.99765
G1 X106.649 Y108.011 E45.92060
G1 X105.750 Y108.011 E46.00382
G1 X91.955 Y94.216 E47.80908
G1 X91.955 Y95.115 E47.89229
G1 X104.850 Y108.011 E49.57986
G1 X103.951 Y108.011 E49.66308
G1 X91.955 Y96.014 E51.23296
G1 X91.955 Y96.914 E51.31618
G1 X103.052 Y108.011 E52.76837
G1 X102.152 Y108.011 E52.85159
G1 X91.955 Y97.813 E54.18609
G1 X91.955 Y98.712 E54.26931
G1 X101.253 Y108.011 E55.48613
G1 X100.354 Y108.011 E55.56935
G1 X91.955 Y99.612 E56.66847
G1 X91.955 Y100.511 E56.75169
G1 X99.455 Y108.011 E57.73313
G1 X98.555 Y108.011 E57.81634
G1 X91.955 Y101.410 E58.68009
G1 X91.955 Y102.310 E58.76331
G1 X97.656 Y108.011 E59.50937
G1 X96.757 Y108.011 E59.59259
G1 X91.955 Y103.209 E60.22096
G1 X91.955 Y104.108 E60.30418
G1 X95.857 Y108.011 E60.81486
G1 X94.958 Y108.011 E60.89808
G1 X91.955 Y105.008 E61.29107
G1 X91.955 Y105.907 E61.37429
G1 X94.059 Y108.011 E61.64959
G1 X93.159 Y108.011 E61.73281
G1 X91.955 Y106.806 E61.89043
G1 X91.955 Y107.706 E61.97365
G1 X92.260 Y108.011 E62.01357
M104 S230 ; set temperature
M140 S70 ; wait for bed temperature to be reached
G1 Z0.650 F7800.000
G1 X108.533 Y108.542 F7800.000
G1 X91.432 Y108.542 E63.40956 F3600.000
G1 X91.432 Y91.441 E64.80555
G1 X108.533 Y91.441 E66.20154
G1 X108.533 Y108.467 E67.59141
G1 X109.187 Y109.197 F7800.000
G1 X90.777 Y109.197 E69.09426 F3600.000
G1 X90.777 Y90.787 E70.59711
G1 X109.187 Y90.787 E72.09996
G1 X109.187 Y109.122 E73.59668
G1 X109.732 Y109.742 F7800.000
G1 X90.232 Y109.742 E74.65617 F1800.000
G1 X90.232 Y90.242 E75.71566
G1 X109.732 Y90.242 E76.77515
G1 X109.732 Y109.667 E77.83057
G1 X109.299 Y109.492 F7800.000
G1 X107.818 Y108.145 F7800.000
G1 X108.135 Y107.827 E77.86783 F1200.000
G1 X108.135 Y106.887 E77.94584
G1 X106.877 Y108.145 E78.09343
G1 X105.937 Y108.145 E78.17144
G1 X108.135 Y105.946 E78.42935
G1 X108.135 Y105.006 E78.50736
G1 X104.996 Y108.145 E78.87559
G1 X104.056 Y108.145 E78.95360
G1 X108.135 Y104.065 E79.43215
G1 X108.135 Y103.125 E79.51016
G1 X103.115 Y108.145 E80.09904
G1 X102.175 Y108.145 E80.17704
G1 X108.135 Y102.184 E80.87624
G1 X108.135 Y101.244 E80.95425
G1 X101.234 Y108.145 E81.76377
G1 X100.294 Y108.145 E81.84178
G1 X108.135 Y100.303 E82.76162
G1 X108.135 Y99.363 E82.83963
G1 X99.353 Y108.145 E83.86979
G1 X98.413 Y108.145 E83.94780
G1 X108.135 Y98.422 E85.08829
G1 X108.135 Y97.482 E85.16630
G1 X97.472 Y108.145 E86.41710
G1 X96.532 Y108.145 E86.49511
G1 X108.135 Y96.541 E87.85624
G1 X108.135 Y95.601 E87.93425
G1 X95.591 Y108.145 E89.40570
G1 X94.651 Y108.145 E89.48371
G1 X108.135 Y94.660 E91.06549
G1 X108.135 Y93.720 E91.14349
G1 X93.710 Y108.145 E92.83559
G1 X92.770 Y108.145 E92.91360
G1 X108.135 Y92.779 E94.71602
G1 X108.115 Y91.859 E94.79238
G1 X91.849 Y108.125 E96.70043
G1 X91.829 Y107.204 E96.77680
G1 X107.195 Y91.839 E98.57921
G1 X106.254 Y91.839 E98.65722
G1 X91.829 Y106.264 E100.34931
G1 X91.829 Y105.323 E100.42732
G1 X105.314 Y91.839 E102.00909
G1 X104.373 Y91.839 E102.08710
G1 X91.829 Y104.383 E103.55855
G1 X91.829 Y103.442 E103.63656
G1 X103.433 Y91.839 E104.99768
G1 X102.492 Y91.839 E105.07569
G1 X91.829 Y102.502 E106.32650
G1 X91.829 Y101.561 E106.40451
G1 X101.552 Y91.839 E107.54499
G1 X100.611 Y91.839 E107.62300
G1 X91.829 Y100.621 E108.65316
G1 X91.829 Y99.680 E108.73117
G1 X99.671 Y91.839 E109.65101
G1 X98.730 Y91.839 E109.72902
G1 X91.829 Y98.740 E110.53853
G1 X91.829 Y97.799 E110.61654
G1 X97.790 Y91.839 E111.31574
G1 X96.849 Y91.839 E111.39375
G1 X91.829 Y96.859 E111.98262
G1 X91.829 Y95.918 E112.06063
G1 X95.909 Y91.839 E112.53918
G1 X94.968 Y91.839 E112.61719
G1 X91.829 Y94.978 E112.98541
G1 X91.829 Y94.037 E113.06342
G1 X94.028 Y91.839 E113.32133
G1 X93.088 Y91.839 E113.39934
G1 X91.829 Y93.097 E113.54692
G1 X91.829 Y92.157 E113.62493
G1 X92.147 Y91.839 E113.66220
G1 Z0.950 F7800.000
G1 X108.538 Y108.545 F7800.000
G1 X91.437 Y108.545 E115.05819 F3600.000
G1 X91.437 Y91.444 E116.45418
G1 X108.538 Y91.444 E117.85017
G1 X108.538 Y108.470 E119.24004
G1 X109.193 Y109.199 F7800.000
G1 X90.783 Y109.199 E120.74288 F3600.000
G1 X90.783 Y90.789 E122.24573
G1 X109.193 Y90.789 E123.74858
G1 X109.193 Y109.124 E125.24530
G1 X109.738 Y109.744 F7800.000
G1 X90.238 Y109.744 E126.30480 F1800.000
G1 X90.238 Y90.244 E127.36429
G1 X109.738 Y90.244 E128.42378
G1 X109.738 Y109.669 E129.47919
G1 X109.305 Y109.494 F7800.000
G1 X108.141 Y92.159 F7800.000
G1 X107.823 Y91.841 E129.51646 F1200.000
G1 X106.883 Y91.841 E129.59447
G1 X108.141 Y93.100 E129.74206
G1 X108.141 Y94.040 E129.82007
G1 X105.942 Y91.841 E130.07797
G1 X105.002 Y91.841 E130.15598
G1 X108.141 Y94.981 E130.52422
G1 X108.141 Y95.921 E130.60223
G1 X104.061 Y91.841 E131.08078
G1 X103.121 Y91.841 E131.15879
G1 X108.141 Y96.861 E131.74766
G1 X108.141 Y97.802 E131.82567
G1 X102.180 Y91.841 E132.52487
G1 X101.240 Y91.841 E132.60288
G1 X108.141 Y98.742 E133.41240
G1 X108.141 Y99.683 E133.49041
G1 X100.299 Y91.841 E134.41025
G1 X99.359 Y91.841 E134.48826
G1 X108.141 Y100.623 E135.51842
G1 X108.141 Y101.564 E135.59643
G1 X98.418 Y91.841 E136.73691
G1 X97.478 Y91.841 E136.81492
G1 X108.141 Y102.504 E138.06573
G1 X108.141 Y103.445 E138.14374
G1 X96.537 Y91.841 E139.50487
G1 X95.597 Y91.841 E139.58288
G1 X108.141 Y104.385 E141.05433
G1 X108.141 Y105.326 E141.13234
G1 X94.656 Y91.841 E142.71411
G1 X93.716 Y91.841 E142.79212
G1 X108.141 Y106.266 E144.48421
G1 X108.141 Y107.207 E144.56222
G1 X92.775 Y91.841 E146.36464
G1 X91.855 Y91.861 E146.44100
G1 X108.121 Y108.127 E148.34905
G1 X107.200 Y108.147 E148.42542
G1 X91.835 Y92.782 E150.22783
G1 X91.835 Y93.722 E150.30584
G1 X106.260 Y108.147 E151.99793
G1 X105.319 Y108.147 E152.07594
G1 X91.835 Y94.663 E153.65771
G1 X91.835 Y95.603 E153.73572
G1 X104.379 Y108.147 E155.20717
G1 X103.438 Y108.147 E155.28518
G1 X91.835 Y96.544 E156.64630
G1 X91.835 Y97.484 E156.72431
G1 X102.498 Y108.147 E157.97511
G1 X101.557 Y108.147 E158.05312
G1 X91.835 Y98.425 E159.19360
G1 X91.835 Y99.365 E159.27161
G1 X100.617 Y108.147 E160.30177
G1 X99.676 Y108.147 E160.37978
G1 X91.835 Y100.306 E161.29962
G1 X91.835 Y101.246 E161.37763
G1 X98.736 Y108.147 E162.18715
G1 X97.795 Y108.147 E162.26516
G1 X91.835 Y102.187 E162.96435
G1 X91.835 Y103.127 E163.04236
G1 X96.855 Y108.147 E163.63123
G1 X95.914 Y108.147 E163.70924
G1 X91.835 Y104.068 E164.18779
G1 X91.835 Y105.008 E164.26580
G1 X94.974 Y108.147 E164.63403
G1 X94.033 Y108.147 E164.71204
G1 X91.835 Y105.949 E164.96995
G1 X91.835 Y106.889 E165.04796
G1 X93.093 Y108.147 E165.19554
G1 X92.152 Y108.147 E165.27355
G1 X91.835 Y107.830 E165.31081
M106 S168.3
G1 Z1.250 F7800.000
G1 E163.31081 F2400.00000
G92 E0
G1 X108.544 Y108.547 F7800.000
G1 E2.00000 F2400.00000
G1 X91.443 Y108.547 E3.39599 F3600.000
G1 X91.443 Y91.446 E4.79198
G1 X108.544 Y91.446 E6.18797
G1 X108.544 Y108.472 E7.57784
G1 X109.198 Y109.202 F7800.000
G1 X90.788 Y109.202 E9.08069 F3600.000
G1 X90.788 Y90.792 E10.58354
G1 X109.198 Y90.792 E12.08638
G1 X109.198 Y109.127 E13.58311
G1 X109.743 Y109.747 F7800.000
G1 X90.243 Y109.747 E14.64260 F1800.000
G1 X90.243 Y90.247 E15.70209
G1 X109.743 Y90.247 E16.76158
G1 X109.743 Y109.672 E17.81700
G1 X109.310 Y109.497 F7800.000
G1 E15.81700 F2400.00000
G92 E0
G1 X107.829 Y108.150 F7800.000
G1 E2.00000 F2400.00000
G1 X108.146 Y107.832 E2.03726 F900.000
G1 X108.146 Y106.892 E2.11527
G1 X106.888 Y108.150 E2.26286
G1 X105.948 Y108.150 E2.34087
G1 X108.146 Y105.951 E2.59878
G1 X108.146 Y105.011 E2.67679
G1 X105.007 Y108.150 E3.04502
G1 X104.067 Y108.150 E3.12303
G1 X108.146 Y104.070 E3.60158
G1 X108.146 Y103.130 E3.67959
G1 X103.126 Y108.150 E4.26846
G1 X102.186 Y108.150 E4.34647
G1 X108.146 Y102.189 E5.04567
G1 X108.146 Y101.249 E5.12368
G1 X101.245 Y108.150 E5.93320
G1 X100.305 Y108.150 E6.01121
G1 X108.146 Y100.308 E6.93105
G1 X108.146 Y99.368 E7.00905
G1 X99.364 Y108.150 E8.03922
G1 X98.424 Y108.150 E8.11723
G1 X108.146 Y98.427 E9.25771
G1 X108.146 Y97.487 E9.33572
G1 X97.483 Y108.150 E10.58652
G1 X96.543 Y108.150 E10.66453
G1 X108.146 Y96.546 E12.02566
G1 X108.146 Y95.606 E12.10367
G1 X95.602 Y108.150 E13.57512
G1 X94.662 Y108.150 E13.65313
G1 X108.146 Y94.665 E15.23490
G1 X108.146 Y93.725 E15.31291
G1 X93.721 Y108.150 E17.00500
G1 X92.781 Y108.150 E17.08301
G1 X108.146 Y92.784 E18.88542
G1 X108.126 Y91.864 E18.96179
G1 X91.860 Y108.130 E20.86983
G1 X91.840 Y107.209 E20.94620
G1 X107.206 Y91.844 E22.74862
G1 X106.265 Y91.844 E22.82662
G1 X91.840 Y106.269 E24.51871
G1 X91.840 Y105.328 E24.59672
G1 X105.325 Y91.844 E26.17849
G1 X104.384 Y91.844 E26.25650
G1 X91.840 Y104.388 E27.72795
G1 X91.840 Y103.447 E27.80596
G1 X103.444 Y91.844 E29.16708
G1 X102.503 Y91.844 E29.24509
G1 X91.840 Y102.507 E30.49589
G1 X91.840 Y101.566 E30.57390
G1 X101.563 Y91.844 E31.71438
G1 X100.622 Y91.844 E31.79239
G1 X91.840 Y100.626 E32.82255
G1 X91.840 Y99.685 E32.90056
G1 X99.682 Y91.844 E33.82040
G1 X98.741 Y91.844 E33.89841
G1 X91.840 Y98.745 E34.70792
G1 X91.840 Y97.804 E34.78593
G1 X97.801 Y91.844 E35.48512
G1 X96.860 Y91.844 E35.56313
G1 X91.840 Y96.864 E36.15200
G1 X91.840 Y95.923 E36.23001
G1 X95.920 Y91.844 E36.70856
G1 X94.979 Y91.844 E36.78657
G1 X91.840 Y94.983 E37.15480
G1 X91.840 Y94.043 E37.23281
G1 X94.039 Y91.844 E37.49072
G1 X93.098 Y91.844 E37.56872
G1 X91.840 Y93.102 E37.71631
G1 X91.840 Y92.162 E37.79432
